packages/dnb-eufemia/assets/icons/ambulance.svg

<svg width="16" height="16" viewBox="0 0 16 16" fill="none" xmlns="http://www.w3.org/2000/svg">
<path d="M5.66667 5.93333C5.66667 5.41787 6.08453 5 6.6 5H14.0667C14.5821 5 15 5.41787 15 5.93333V13.1333C15 13.6488 14.5821 14.0667 14.0667 14.0667H13.5203M5.66667 5.93333H3.59529C3.1671 5.93338 2.79386 6.22479 2.68996 6.64018L2.4 8.26667C1.88055 8.61308 1.00152 8.96494 1 9.69778V13.1333C1 13.6488 1.41787 14.0667 1.93333 14.0667H3.87966M5.66667 5.93333V12.2797M10 7.7V9.1M10 10.5V9.1M10 9.1H8.6M10 9.1H11.4M9.4 1.93333V1M11.7333 2.86667L12.2 1.93333M7.06667 2.86667L6.6 1.93333M3.87966 14.0667C4.07185 14.6104 4.59043 15 5.2 15C5.80957 15 6.32815 14.6104 6.52034 14.0667M3.87966 14.0667C3.49556 12.9799 4.61057 11.9064 5.66667 12.2797M5.66667 12.2797C6.3862 12.534 6.77236 13.3536 6.52034 14.0667M6.52034 14.0667H10.8797M10.8797 14.0667C11.0719 14.6104 11.5904 15 12.2 15C12.8096 15 13.3281 14.6104 13.5203 14.0667M10.8797 14.0667C10.567 13.1821 11.2463 12.2 12.2 12.2C12.9732 12.2 13.6 12.8268 13.6 13.6C13.6 13.7636 13.5719 13.9207 13.5203 14.0667" stroke="black" stroke-width="1.5" stroke-linecap="round" stroke-linejoin="round"/>
</svg>

<svg width="16" height="16" viewBox="0 0 16 16" fill="none" xmlns="http://www.w3.org/2000/svg"><path d="M5.667 5.933c0-.515.418-.933.933-.933h7.467c.515 0 .933.418.933.933v7.2a.933.933 0 0 1-.933.934h-.547M5.667 5.933H3.595a.933.933 0 0 0-.905.707L2.4 8.267c-.52.346-1.398.698-1.4 1.43v3.436c0 .516.418.934.933.934H3.88m1.787-8.134v6.347M10 7.7v1.4m0 1.4V9.1m0 0H8.6m1.4 0h1.4m-2-7.167V1m2.333 1.867.467-.934m-5.133.934L6.6 1.933M3.88 14.067a1.4 1.4 0 0 0 2.64 0m-2.64 0c-.384-1.087.73-2.16 1.787-1.787m0 0a1.418 1.418 0 0 1 .853 1.787m0 0h4.36m0 0a1.4 1.4 0 0 0 2.64 0m-2.64 0c-.313-.885.366-1.867 1.32-1.867a1.4 1.4 0 0 1 1.32 1.867" stroke="#000" stroke-width="1.5" stroke-linecap="round" stroke-linejoin="round"/></svg>
